images/sad-face.svg

<?xml version="1.0" encoding="UTF-8"?>
<svg width="64px" height="64px" viewBox="0 0 64 64" version="1.1" xmlns="http://www.w3.org/2000/svg" xmlns:xlink="http://www.w3.org/1999/xlink">
    <!-- Generator: Sketch 48.2 (47327) - http://www.bohemiancoding.com/sketch -->
    <title>sad-face</title>
    <desc>Created with Sketch.</desc>
    <defs></defs>
    <g id="Home" stroke="none" stroke-width="1" fill="none" fill-rule="evenodd" transform="translate(-688.000000, -2247.000000)">
        <g id="sad-face" transform="translate(688.000000, 2247.000000)" fill="#F80051" fill-rule="nonzero">
            <path d="M5.1277704,2 C3.80406657,2 3.40096145,2.07784319 2.98950631,2.2978918 C2.68619141,2.46010639 2.46010639,2.68619141 2.2978918,2.98950631 C2.07784319,3.40096145 2,3.80406657 2,5.1277704 L2,30.8816982 C2,31.4171472 2.00134807,31.5358108 2.0074858,31.6481907 C2.01178393,31.7268882 2.01795644,31.7770281 2.03287359,31.8544184 C2.05417523,31.9649314 2.08164756,32.080379 2.21151302,32.5998408 L8.93346357,59.487643 C9.21584733,60.6171781 9.35660677,60.9507951 9.60024272,61.2697276 C9.77908498,61.5038417 9.99013772,61.6686267 10.2606374,61.7853482 C10.6291378,61.9443573 10.986933,62 12.1512311,62 L51.8487689,62 C53.013067,62 53.3708622,61.9443573 53.7393626,61.7853482 C54.0098623,61.6686267 54.220915,61.5038417 54.3997573,61.2697276 C54.6433932,60.9507951 54.7841527,60.6171781 55.0665364,59.487643 L61.788487,32.5998408 C61.9183524,32.080379 61.9458248,31.9649314 61.9671264,31.8544184 C61.9820436,31.7770281 61.9882161,31.7268882 61.9925142,31.6481907 C61.9986519,31.5358108 62,31.4171472 62,30.8816982 L62,5.1277704 C62,3.80406657 61.9221568,3.40096145 61.7021082,2.98950631 C61.5398936,2.68619141 61.3138086,2.46010639 61.0104937,2.2978918 C60.5990386,2.07784319 60.1959334,2 58.8722296,2 L5.1277704,2 Z M5.1277704,-1.9835249e-15 L51.0264326,1.64015477e-14 L58.8722296,2.21049072e-15 C60.6552671,-1.28435877e-15 61.3018396,0.185651222 61.9536914,0.534265408 C62.6055433,0.882879593 63.1171204,1.39445674 63.4657346,2.04630859 C63.8143488,2.69816044 64,3.34473292 64,5.1277704 L64,30.8816982 C64,31.4351024 63.9987772,31.5880922 63.989538,31.7572599 C63.9802987,31.9264276 63.963043,32.0665975 63.9309772,32.2329551 C63.8989114,32.3993127 63.8629922,32.5480311 63.728772,33.0849121 L57.0068214,59.9727143 C56.6335816,61.4656738 56.3758946,61.9774725 55.9890826,62.4838302 C55.6022706,62.9901879 55.1168019,63.3692303 54.5317471,63.6216834 C53.9466923,63.8741364 53.3876763,64 51.8487689,64 L12.1512311,64 C10.6123237,64 10.0533077,63.8741364 9.46825291,63.6216834 C8.88319808,63.3692303 8.39772945,62.9901879 8.0109174,62.4838302 C7.62410535,61.9774725 7.36641845,61.4656738 6.99317857,59.9727143 L0.271228017,33.0849121 C0.137007786,32.5480311 0.101088609,32.3993127 0.0690227942,32.2329551 C0.0369569794,32.0665975 0.0197012809,31.9264276 0.010462036,31.7572599 C0.00122279117,31.5880922 1.95954204e-14,31.4351024 2.00191696e-14,30.8816982 L-1.13741413e-15,5.1277704 C-2.14760095e-15,3.34473292 0.185651222,2.69816044 0.534265408,2.04630859 C0.882879593,1.39445674 1.39445674,0.882879593 2.04630859,0.534265408 C2.69816044,0.185651222 3.34473292,-1.65598623e-15 5.1277704,-1.9835249e-15 Z M16.5353795,13.7058518 C19.7053895,12.6143298 23.5619031,16.0086384 22.8389649,13.9090733 C22.1160267,11.8095083 18.6847157,9.84839558 15.5147057,10.9399175 C12.3446957,12.0314395 10.8380724,15.9145926 11.5610106,18.0141577 C12.2839488,20.1137227 13.3653695,14.7973737 16.5353795,13.7058518 Z M48.4726044,17.999849 C51.6177008,19.2071384 52.7695748,24.0309183 53.5508814,21.9955451 C54.332188,19.9601718 52.9235752,16.3677803 49.7784788,15.1604909 C46.6333824,13.9532015 42.9963737,16.0058404 42.2150671,18.0412137 C41.4337605,20.0765869 45.327508,16.7925596 48.4726044,17.999849 Z M18.5,32.1772834 C21.2605166,32.1772834 23,34.5802843 23,31.1726442 C23,27.765004 21.2605166,25 18.5,25 C15.7394834,25 14,27.765004 14,31.1726442 C14,34.5802843 15.7394834,32.1772834 18.5,32.1772834 Z M45.6219036,32.1938794 C48.3838097,32.1938794 50,34.5691177 50,31.1652177 C50,27.7613178 48.2619061,25 45.5,25 C42.7380939,25 41,27.7613178 41,31.1652177 C41,34.5691177 42.8599975,32.1938794 45.6219036,32.1938794 Z M32,50.9820032 C34.7525979,50.9820032 37,49.4849186 37,47.2644244 C37,45.0439302 34.7191102,43 31.9665123,43 C29.2139144,43 27,45.0439302 27,47.2644244 C27,49.4849186 29.2474021,50.9820032 32,50.9820032 Z"></path>
        </g>
    </g>
</svg>

<?xml version="1.0" encoding="utf-8"?>
<!-- Generator: Adobe Illustrator 22.0.1, SVG Export Plug-In . SVG Version: 6.00 Build 0)  -->
<svg version="1.1" id="Ebene_1" xmlns="http://www.w3.org/2000/svg" xmlns:xlink="http://www.w3.org/1999/xlink" x="0px" y="0px"
	 viewBox="0 0 64 64" style="enable-background:new 0 0 64 64;" xml:space="preserve">
<style type="text/css">
	.st0{fill:#2FCDE8;}
</style>
<title>sad-face</title>
<desc>Created with Sketch.</desc>
<g id="Home" transform="translate(-688.000000, -2247.000000)">
	<g id="sad-face" transform="translate(688.000000, 2247.000000)">
		<path class="st0" d="M5.1,2C3.8,2,3.4,2.1,3,2.3C2.7,2.5,2.5,2.7,2.3,3C2.1,3.4,2,3.8,2,5.1v25.8c0,0.5,0,0.7,0,0.8
			c0,0.1,0,0.1,0,0.2c0,0.1,0,0.2,0.2,0.7l6.7,26.9c0.3,1.1,0.4,1.5,0.7,1.8c0.2,0.2,0.4,0.4,0.7,0.5c0.4,0.2,0.7,0.2,1.9,0.2h39.7
			c1.2,0,1.5-0.1,1.9-0.2c0.3-0.1,0.5-0.3,0.7-0.5c0.2-0.3,0.4-0.7,0.7-1.8l6.7-26.9c0.1-0.5,0.2-0.6,0.2-0.7c0-0.1,0-0.1,0-0.2
			c0-0.1,0-0.2,0-0.8V5.1c0-1.3-0.1-1.7-0.3-2.1c-0.2-0.3-0.4-0.5-0.7-0.7C60.6,2.1,60.2,2,58.9,2H5.1z M5.1,0H51h7.8
			c1.8,0,2.4,0.2,3.1,0.5c0.7,0.3,1.2,0.9,1.5,1.5C63.8,2.7,64,3.3,64,5.1v25.8c0,0.6,0,0.7,0,0.9c0,0.2,0,0.3-0.1,0.5
			c0,0.2-0.1,0.3-0.2,0.9L57,60c-0.4,1.5-0.6,2-1,2.5c-0.4,0.5-0.9,0.9-1.5,1.1c-0.6,0.3-1.1,0.4-2.7,0.4H12.2
			c-1.5,0-2.1-0.1-2.7-0.4C8.9,63.4,8.4,63,8,62.5c-0.4-0.5-0.6-1-1-2.5L0.3,33.1c-0.1-0.5-0.2-0.7-0.2-0.9c0-0.2,0-0.3-0.1-0.5
			c0-0.2,0-0.3,0-0.9V5.1C0,3.3,0.2,2.7,0.5,2S1.4,0.9,2,0.5S3.3,0,5.1,0z M16.5,13.7c3.2-1.1,7,2.3,6.3,0.2s-4.2-4.1-7.3-3
			s-4.7,5-4,7.1C12.3,20.1,13.4,14.8,16.5,13.7z M48.5,18c3.1,1.2,4.3,6,5.1,4s-0.6-5.6-3.8-6.8C46.6,14,43,16,42.2,18
			C41.4,20.1,45.3,16.8,48.5,18z M18.5,32.2c2.8,0,4.5,2.4,4.5-1S21.3,25,18.5,25S14,27.8,14,31.2S15.7,32.2,18.5,32.2z M45.6,32.2
			c2.8,0,4.4,2.4,4.4-1S48.3,25,45.5,25S41,27.8,41,31.2S42.9,32.2,45.6,32.2z M32,51c2.8,0,5-1.5,5-3.7c0-2.2-2.3-4.3-5-4.3
			s-5,2-5,4.3C27,49.5,29.2,51,32,51z"/>
	</g>
</g>
</svg>
